X: 363
Q: "Slow with Expression"
M: 6/8
L: 1/8
K: Eb
V: 1
({c}BA)G {G}~F2B | {c}B=AB B,2_d | _dc=B {B}~c2_B/A/ | GFG (A>B)c | B>cA G2~F | E3- E2 |]
V: 2 clef=bass middle=d
z | E3 A3 | B2=B c2z | B3 e3 | b2B e2z | zbb bbb | zbb bbb |
e3 f3 | b2B e2z | B2f g2=e | f2F B2z | b2B e3 | d2f e3 |
ga=a b2z | Bdf B2z | b2g a2z | e3 a3 | g2a b2B | EGB E2 |]


